X:143
T: Gefangen in maurischer Wueste,
N: D0228
O: Europa, Mitteleuropa, Deutschland, Schleswig - Holstein
N: rhythmische Korrekturen in der ersten und vierten Zeile
N: Inzipit = Variante zum Lied
R: Soldaten - Lied
M: 4/4
L: 1/16
K: Bb
F4 | F4D2E2F4B2c2 | d8d4
e2d2 | d4c2c2c4e2d2 | B12
F2F2 | B4B2B2c4c2c2 | d4d4z4
B2d2 | f6f2f4f2e2 | d12
e3d | d2c2c4z2c2e2d2 | c2B2B6
B2c2B2 | A6c2c2c2e2e2 | d8z2
d2d2d2 | G6d2d6c2 | c4B6
F2B2c2 | d6d2d2d2e2c2 | f8z2
f2e2d2 | d2c2d2c2B2B2d3c | c8z4

